X:551
T:An Buachaill Dreoite
M:4/4
L:1/8
S:Dermy Diamond, Belfast (fiddle)
R:Hornpipe
D:Session Tape - Mullach, Clare 1985
Z:Bernie Stocks
H:Played with 49
K:G
G3B d2GB | dBcA G4 | G3B d2GB | dBcA F4 | G3B d2GB | dBcA G3g | fgaf gbag\
|1 fdcA G4 :|2 fdcA G2GA |: B2AB c2Bc | dGGF G3A | B2GB c2Ac |\
dGAG F2GA | ~B3B ~c3c | ~d3e ~f2fd | g2gf gbag | fdcA G4 :|


